my-app/src/assets/icons/football.svg

<svg viewBox="0 0 492 492" xmlns="http://www.w3.org/2000/svg" xml:space="preserve" style="fill-rule:evenodd;clip-rule:evenodd;stroke-linecap:round;stroke-linejoin:round;stroke-miterlimit:1.5"><circle cx="656.5" cy="592.5" r="471.5" style="fill:#fff;stroke:#000;stroke-width:20.46px" transform="matrix(.48 0 0 .48 -65.815 -38.64)"/><path d="M492.384-33.112C414.265-11.478 348.701 34.225 314.67 120.197" style="fill:#fff;stroke:#000;stroke-width:38.01px" transform="matrix(-.25187 .12624 -.10423 -.20795 393.434 398.717)"/><path d="M487-8.078c-27.425 34.5-94.424 131.755-96.849 193.255" style="fill:#fff;stroke:#000;stroke-width:20.46px" transform="matrix(.48 0 0 .48 -107.04 199.8)"/><path d="M439.613 49.275c-27.425 34.5-32.119 53.476-40.868 91.832" style="fill:#fff;stroke:#000;stroke-width:11.45px" transform="matrix(.27724 .75325 -.85348 .31413 274.594 -238.139)"/><path d="M422.064-64.513c-43.854 49.36-73.363 98.738-107.394 184.71" style="fill:#fff;stroke:#000;stroke-width:20.46px" transform="rotate(-121.054 281.445 188.017) scale(.48)"/><path d="M387.581-77.624c-8.779 63.276-38.88 111.849-72.911 197.821" style="fill:#fff;stroke:#000;stroke-width:20.46px" transform="rotate(126.353 151.875 144.08) scale(.48)"/><path d="M126 259c47.667-20 71.333-21 119-21" style="fill:#fff;stroke:#000;stroke-width:20.46px" transform="scale(.48)"/><path d="M136.035 252.05c19.4-7 33.444-13.692 64.614-12.331" style="fill:#fff;stroke:#000;stroke-width:20.46px" transform="rotate(-110.3 113.484 215.288) scale(.48)"/><path d="M136.035 252.05c19.4-7 33.444-13.692 64.614-12.331" style="fill:#fff;stroke:#000;stroke-width:20.46px" transform="rotate(-110.3 210.838 256.844) scale(.48)"/><path d="M448 47.5c-27.425 34.5-31.85 62-47.275 96.5" style="fill:#fff;stroke:#000;stroke-width:20.46px" transform="scale(.48)"/><path d="M429.784-65.701c-29.255 34.805-46.724 62.25-60.977 113.44" style="fill:#fff;stroke:#000;stroke-width:20.46px" transform="rotate(-121.054 405.27 113.287) scale(.48)"/><path d="M519 154c40.895 0 152.36 60.326 143.686 81.828-34.515 85.561-83.854 171.251-83.854 171.251-35.085 3.391-192.656 11.093-192.656 11.093-28.813-32.967-43.5-127.982-22.862-172.344 0 0 114.791-91.828 155.686-91.828Z" style="stroke:#000;stroke-width:20.46px" transform="matrix(.48 0 0 .48 -55.53 -4.8)"/><path d="M519 133c40.895 0 152.36 81.326 143.686 102.828-34.515 85.561-83.854 171.251-83.854 171.251-35.085 3.391-192.656 11.093-192.656 11.093-28.813-32.967-43.5-127.982-22.862-172.344 0 0 114.791-112.828 155.686-112.828Z" style="stroke:#000;stroke-width:20.46px" transform="rotate(180 278 238.643) scale(.48)"/><g><path d="M506.213 163.984c40.895 0 147.115 100.975 138.442 122.476-34.515 85.562-54.398 92.134-54.398 92.134-78.762-54.302-197.033-28.493-197.033-28.493-28.813-32.967-43.878-126.949-23.24-171.311 0 0 95.333-14.806 136.229-14.806Z" style="stroke:#000;stroke-width:24.96px" transform="matrix(.32692 .35146 -.2059 .19152 302.1 -95.156)"/></g><g><path d="M512.036 138.261c36.175 32.558 127.585 114.258 118.911 135.76-34.515 85.561-40.69 104.573-40.69 104.573-78.762-54.302-198.906-50.118-198.906-50.118-28.813-32.967-61.679-116.612-41.042-160.974 0 0 111.381-74.554 161.727-29.241Z" style="stroke:#000;stroke-width:25.34px" transform="matrix(-.32692 -.35146 .1937 -.18019 198.877 564.35)"/></g><g><path d="M422.064-64.513c-43.854 49.36-79.362 98.455-113.393 184.428" style="fill:#fff;stroke:#000;stroke-width:20.46px" transform="rotate(179.802 282.767 122.938) scale(.48)"/></g></svg>

<?xml version="1.0" encoding="UTF-8" standalone="no"?>
<!DOCTYPE svg PUBLIC "-//W3C//DTD SVG 1.1//EN" "http://www.w3.org/Graphics/SVG/1.1/DTD/svg11.dtd">
<svg width="100%" height="100%" viewBox="0 0 492 492" version="1.1" xmlns="http://www.w3.org/2000/svg" xmlns:xlink="http://www.w3.org/1999/xlink" xml:space="preserve" xmlns:serif="http://www.serif.com/" style="fill-rule:evenodd;clip-rule:evenodd;stroke-linecap:round;stroke-linejoin:round;stroke-miterlimit:1.5;">
    <g transform="matrix(0.48,0,0,0.48,0,0)">
        <g>
            <g>
                <g transform="matrix(1,0,0,1,-137.115,-80.5)">
                    <circle cx="656.5" cy="592.5" r="471.5" style="fill:white;stroke:black;stroke-width:20.46px;"/>
                </g>
                <g transform="matrix(-0.524723,0.262997,-0.217137,-0.433225,819.655,830.66)">
                    <path d="M492.384,-33.112C414.265,-11.478 348.701,34.225 314.67,120.197" style="fill:white;stroke:black;stroke-width:38.01px;"/>
                </g>
                <g transform="matrix(1,0,0,1,-223,416.25)">
                    <path d="M487,-8.078C459.575,26.422 392.576,123.677 390.151,185.177" style="fill:white;stroke:black;stroke-width:20.46px;"/>
                </g>
                <g transform="matrix(0.577587,1.56928,-1.77809,0.654443,572.071,-496.122)">
                    <path d="M439.613,49.275C412.188,83.775 407.494,102.751 398.745,141.107" style="fill:white;stroke:black;stroke-width:11.45px;"/>
                </g>
            </g>
            <g transform="matrix(-0.515847,-0.856681,0.856681,-0.515847,553.242,1096.07)">
                <path d="M422.064,-64.513C378.21,-15.153 348.701,34.225 314.67,120.197" style="fill:white;stroke:black;stroke-width:20.46px;"/>
            </g>
            <g transform="matrix(-0.592764,0.805376,-0.805376,-0.592764,745.707,223.266)">
                <path d="M387.581,-77.624C378.802,-14.348 348.701,34.225 314.67,120.197" style="fill:white;stroke:black;stroke-width:20.46px;"/>
            </g>
            <path d="M126,259C173.667,239 197.333,238 245,238" style="fill:white;stroke:black;stroke-width:20.46px;"/>
            <g transform="matrix(-0.346943,-0.937886,0.937886,-0.346943,-102.207,825.865)">
                <path d="M136.035,252.05C155.435,245.05 169.479,238.358 200.649,239.719" style="fill:white;stroke:black;stroke-width:20.46px;"/>
            </g>
            <g transform="matrix(-0.346943,-0.937886,0.937886,-0.346943,89.7842,1132.7)">
                <path d="M136.035,252.05C155.435,245.05 169.479,238.358 200.649,239.719" style="fill:white;stroke:black;stroke-width:20.46px;"/>
            </g>
            <path d="M448,47.5C420.575,82 416.15,109.5 400.725,144" style="fill:white;stroke:black;stroke-width:20.46px;"/>
            <g transform="matrix(-0.515847,-0.856681,0.856681,-0.515847,1077.66,1081.07)">
                <path d="M429.784,-65.701C400.529,-30.896 383.06,-3.451 368.807,47.739" style="fill:white;stroke:black;stroke-width:20.46px;"/>
            </g>
            <g transform="matrix(1,0,0,1,-115.686,-10)">
                <path d="M519,154C559.895,154 671.36,214.326 662.686,235.828C628.171,321.389 578.832,407.079 578.832,407.079C543.747,410.47 386.176,418.172 386.176,418.172C357.363,385.205 342.676,290.19 363.314,245.828C363.314,245.828 478.105,154 519,154Z" style="stroke:black;stroke-width:20.46px;"/>
            </g>
            <g transform="matrix(-1,0,0,-1,1158.33,994.344)">
                <path d="M519,133C559.895,133 671.36,214.326 662.686,235.828C628.171,321.389 578.832,407.079 578.832,407.079C543.747,410.47 386.176,418.172 386.176,418.172C357.363,385.205 342.676,290.19 363.314,245.828C363.314,245.828 478.105,133 519,133Z" style="stroke:black;stroke-width:20.46px;"/>
            </g>
            <g transform="matrix(0.68109,0.732199,-0.42895,0.399009,629.375,-198.241)">
                <path d="M506.213,163.984C547.108,163.984 653.328,264.959 644.655,286.46C610.14,372.022 590.257,378.594 590.257,378.594C511.495,324.292 393.224,350.101 393.224,350.101C364.411,317.134 349.346,223.152 369.984,178.79C369.984,178.79 465.317,163.984 506.213,163.984Z" style="stroke:black;stroke-width:24.96px;"/>
            </g>
            <g transform="matrix(-0.68109,-0.732199,0.403559,-0.37539,414.327,1175.73)">
                <path d="M512.036,138.261C548.211,170.819 639.621,252.519 630.947,274.021C596.432,359.582 590.257,378.594 590.257,378.594C511.495,324.292 391.351,328.476 391.351,328.476C362.538,295.509 329.672,211.864 350.309,167.502C350.309,167.502 461.69,92.948 512.036,138.261Z" style="stroke:black;stroke-width:25.34px;"/>
            </g>
            <g transform="matrix(-0.999994,0.00346625,-0.00346625,-0.999994,1179.08,510.197)">
                <path d="M422.064,-64.513C378.21,-15.153 342.702,33.942 308.671,119.915" style="fill:white;stroke:black;stroke-width:20.46px;"/>
            </g>
        </g>
    </g>
</svg>
